packages/ui-icons/svg/Solid/drag-handle.svg

<svg viewBox="0 0 1920 1920" version="1.1" xmlns="http://www.w3.org/2000/svg">
    <path d="M600 0c132.36 0 240 107.64 240 240S732.36 480 600 480 360 372.36 360 240 467.64 0 600 0zm0 720c132.36 0 240 107.64 240 240s-107.64 240-240 240-240-107.64-240-240 107.64-240 240-240zm0 720c132.36 0 240 107.64 240 240s-107.64 240-240 240-240-107.64-240-240 107.64-240 240-240zm720-960c-132.36 0-240-107.64-240-240S1187.64 0 1320 0s240 107.64 240 240-107.64 240-240 240zm0 240c132.36 0 240 107.64 240 240s-107.64 240-240 240-240-107.64-240-240 107.64-240 240-240zm0 720c132.36 0 240 107.64 240 240s-107.64 240-240 240-240-107.64-240-240 107.64-240 240-240z" stroke="none" stroke-width="1" fill-rule="evenodd"/>
</svg>

<svg viewBox="0 0 1920 1920" version="1.1" xmlns="http://www.w3.org/2000/svg">
    <path d="M600,1440 C732.36,1440 840,1547.64 840,1680 C840,1812.36 732.36,1920 600,1920 C467.64,1920 360,1812.36 360,1680 C360,1547.64 467.64,1440 600,1440 Z M1320,1440 C1452.36,1440 1560,1547.64 1560,1680 C1560,1812.36 1452.36,1920 1320,1920 C1187.64,1920 1080,1812.36 1080,1680 C1080,1547.64 1187.64,1440 1320,1440 Z M600,720 C732.36,720 840,827.64 840,960 C840,1092.36 732.36,1200 600,1200 C467.64,1200 360,1092.36 360,960 C360,827.64 467.64,720 600,720 Z M1320,720 C1452.36,720 1560,827.64 1560,960 C1560,1092.36 1452.36,1200 1320,1200 C1187.64,1200 1080,1092.36 1080,960 C1080,827.64 1187.64,720 1320,720 Z M600,0 C732.36,0 840,107.64 840,240 C840,372.36 732.36,480 600,480 C467.64,480 360,372.36 360,240 C360,107.64 467.64,0 600,0 Z M1320,0 C1452.36,0 1560,107.64 1560,240 C1560,372.36 1452.36,480 1320,480 C1187.64,480 1080,372.36 1080,240 C1080,107.64 1187.64,0 1320,0 Z" stroke="none" stroke-width="1" fill-rule="evenodd"/>
</svg>
